X:102
T:Reel 102
M:4/4
K:Gmaj
L:1/8
B|G2dB cdef|gedB cAAc|G2dB cdge|dBAc BGGd|g2dB cBAB|gedB cAAB|GB (3def gage|dBAc BGG|A|BdBd c2ce|dedB cAAc|BcBd efge|dcBA G2GA|Bdgd ecce|dBGB AGFA|BGBd ec'af|gedc BGG|
